core/img/actions/error.svg

<svg xmlns:rdf="http://www.w3.org/1999/02/22-rdf-syntax-ns#" xmlns="http://www.w3.org/2000/svg" height="16" width="16" version="1.1" xmlns:cc="http://creativecommons.org/ns#" xmlns:dc="http://purl.org/dc/elements/1.1/">
 <path fill="#f2f2f2" d="m5.516 2l-3.516 3.516v4.968l3.516 3.516h4.968l3.516-3.516v-4.968l-3.516-3.516h-4.968zm1.484 2h2v5h-2v-5zm0 6h2v2h-2v-2z"/>
</svg>

<?xml version="1.0" encoding="UTF-8" standalone="no"?>
<svg
   xmlns:dc="http://purl.org/dc/elements/1.1/"
   xmlns:cc="http://creativecommons.org/ns#"
   xmlns:rdf="http://www.w3.org/1999/02/22-rdf-syntax-ns#"
   xmlns:svg="http://www.w3.org/2000/svg"
   xmlns="http://www.w3.org/2000/svg"
   xmlns:sodipodi="http://sodipodi.sourceforge.net/DTD/sodipodi-0.dtd"
   xmlns:inkscape="http://www.inkscape.org/namespaces/inkscape"
   height="16"
   width="16"
   version="1.1"
   id="svg4"
   sodipodi:docname="error.svg"
   inkscape:version="0.92.1 r">
  <metadata
     id="metadata10">
    <rdf:RDF>
      <cc:Work
         rdf:about="">
        <dc:format>image/svg+xml</dc:format>
        <dc:type
           rdf:resource="http://purl.org/dc/dcmitype/StillImage" />
        <dc:title></dc:title>
      </cc:Work>
    </rdf:RDF>
  </metadata>
  <defs
     id="defs8" />
  <sodipodi:namedview
     pagecolor="#ffffff"
     bordercolor="#666666"
     borderopacity="1"
     objecttolerance="10"
     gridtolerance="10"
     guidetolerance="10"
     inkscape:pageopacity="0"
     inkscape:pageshadow="2"
     inkscape:window-width="2560"
     inkscape:window-height="1377"
     id="namedview6"
     showgrid="false"
     inkscape:zoom="14.75"
     inkscape:cx="0.54237288"
     inkscape:cy="8"
     inkscape:window-x="1680"
     inkscape:window-y="0"
     inkscape:window-maximized="1"
     inkscape:current-layer="svg4" />
  <path
     d="M5.516 2L2 5.516v4.968L5.516 14h4.968L14 10.484V5.516L10.484 2H5.516zM7 4h2v5H7V4zm0 6h2v2H7v-2z"
     id="path2"
     style="fill:#f2f2f2;fill-opacity:1" />
</svg>
